static/img/icons-concept-style-dont.svg

<svg width="240" height="240" viewBox="0 0 240 240" fill="none" xmlns="http://www.w3.org/2000/svg"><path fill="#fff" d="M0 0h240v240H0z"/><path stroke="#DFDFDF" d="M39.5 39.5h160v160h-160z"/><path d="M49.5 39.5v160m10-160v160m10-160v160m10-160v160m10-160v160m10-160v160m10-160v160m10-160v160m10-160v160m10-160v160m10-160v160m10-160v160m10-160v160m10-160v160m10-160v160m10-150h-160m160 10h-160m160 10h-160m160 10h-160m160 10h-160m160 10h-160m160 10h-160m160 10h-160m160 10h-160m160 10h-160m160 10h-160m160 10h-160m160 10h-160m160 10h-160m160 10h-160" stroke="#DFDFDF" stroke-linecap="square"/><path fill-rule="evenodd" clip-rule="evenodd" d="M211 39c5.523 0 10-4.477 10-10s-4.477-10-10-10-10 4.477-10 10 4.477 10 10 10Z" fill="#DB3B21"/><path d="m214 26-6 6.002M208 26l6 6.002" stroke="#fff" stroke-width="2" stroke-linecap="round"/><path d="M112.446 59.601v-.662l-.636.181-36.883 10.5c-6.7 1.908-11.32 8.01-11.32 14.956v11.418c0 25.048 10.985 48.846 30.07 65.146l17.945 15.326.824.705V59.601Zm14.108 116.485v1.085l.824-.705 17.945-15.326c19.085-16.3 30.07-40.098 30.07-65.146V84.576c0-6.946-4.621-13.048-11.32-14.955l-36.883-10.5-.636-.182v117.147ZM71.051 56.108l40.285-11.469a29.82 29.82 0 0 1 16.328 0l40.285 11.47c12.757 3.631 21.551 15.25 21.551 28.467v11.418c0 29.149-12.783 56.844-34.995 75.815l-22.221 18.979c-7.356 6.283-18.212 6.283-25.568 0l-22.221-18.979C62.283 152.838 49.5 125.143 49.5 95.994V84.576c0-13.218 8.794-24.836 21.55-28.467Z" fill="#6E49CB" fill-opacity=".3" stroke="#6E49CB"/></svg>

<svg width="240" height="240" viewBox="0 0 240 240" xmlns="http://www.w3.org/2000/svg"><g fill="none" fill-rule="evenodd"><path fill="#FFF" d="M0 0h240v240H0z"/><g stroke="#DFDFDF"><path d="M39.5 39.5h160v160h-160z"/><g stroke-linecap="square"><path d="M49.5 39.5v160M59.5 39.5v160M69.5 39.5v160M79.5 39.5v160M89.5 39.5v160M99.5 39.5v160M109.5 39.5v160M119.5 39.5v160M129.5 39.5v160M139.5 39.5v160M149.5 39.5v160M159.5 39.5v160M169.5 39.5v160M179.5 39.5v160M189.5 39.5v160M199.5 49.5h-160M199.5 59.5h-160M199.5 69.5h-160M199.5 79.5h-160M199.5 89.5h-160M199.5 99.5h-160M199.5 109.5h-160M199.5 119.5h-160M199.5 129.5h-160M199.5 139.5h-160M199.5 149.5h-160M199.5 159.5h-160M199.5 169.5h-160M199.5 179.5h-160M199.5 189.5h-160"/></g></g><g transform="translate(201 19)"><circle fill="#DB3B21" cx="10" cy="10" r="10"/><path d="M13 7l-6 6.002M7 7l6 6.002" stroke="#FFF" stroke-width="2" stroke-linecap="round"/></g><path d="M133.122 192.364l27.233-22.693a81 81 0 0 0 29.145-62.226v-29.99a20 20 0 0 0-11.365-18.04c-19.545-9.354-39.09-14.032-58.635-14.032-19.545 0-39.09 4.678-58.635 14.033A20 20 0 0 0 49.5 77.456v29.294a81 81 0 0 0 30.022 62.947l28.21 22.845a20 20 0 0 0 25.39-.178zm-41.013-38.21A61 61 0 0 1 69.5 106.75V77.456c16.917-8.098 33.527-12.073 50-12.073s33.083 3.975 50 12.073v29.989a61 61 0 0 1-21.949 46.861L120.32 177l-28.21-22.846z" stroke="#6E49CB" fill-opacity=".3" fill="#6E49CB"/><path d="M120 93.302v30.406a7.68 7.68 0 0 1-12.423 6.042l-.222-.174a41.075 41.075 0 0 1-15.028-24.826l-1.233-6.65a10 10 0 0 1 6.717-11.325l9.073-2.975c5.248-1.72 10.898 1.139 12.618 6.387a10 10 0 0 1 .498 3.115z" stroke="#6E49CB" fill-opacity=".3" fill="#6E49CB"/></g></svg>
